X: 851
T: Alborada Rant, The
R: reel
M: 4/4
K: Bminor
e|f2 ef BcdB|cffe e2 ce|fB B/B/B BcdB|cAAc e2 dc|
f2 ef BcdB|cffe e2 dc|B2 Bc A2 ec|decA B3:|
e|fB B/B/B efdB|e2 cA efcA|fB B/B/B efdB|cAAc e2 dc|
fB B/B/B efdB|e2 cA efdB|B2 Bc A2 ec|decA B3:|

